src/assets/images/reactions/men/small/sad.svg

<svg width="15" height="15" viewBox="0 0 15 15" fill="none" xmlns="http://www.w3.org/2000/svg">
<path d="M7.49998 14C10.9927 14 13.8242 11.0899 13.8242 7.5C13.8242 3.91015 10.9927 1 7.49998 1C4.00722 1 1.17578 3.91015 1.17578 7.5C1.17578 11.0899 4.00722 14 7.49998 14Z" fill="url(#paint0_linear_862_4832)"/>
<path d="M9 7.5C9 7.5 9.16901 8 10 8C10.7887 8 11 7.5 11 7.5" stroke="#303030" stroke-miterlimit="10" stroke-linecap="round" stroke-linejoin="round"/>
<path d="M4 7.5C4 7.5 4.16901 8 5 8C5.78873 8 6 7.5 6 7.5" stroke="#303030" stroke-miterlimit="10" stroke-linecap="round" stroke-linejoin="round"/>
<path d="M6.5 11.5C6.5 11.5 7.3381 10.375 8.5 11.5" stroke="#5B0600" stroke-miterlimit="10" stroke-linecap="round" stroke-linejoin="round"/>
<path d="M11.2331 8.52819L11.8534 10.234C11.9803 10.6006 11.797 10.9953 11.4305 11.1222C11.0639 11.2491 10.6692 11.0658 10.5423 10.6992C10.4859 10.5442 10.4859 10.375 10.5423 10.234L11.1626 8.52819C11.1767 8.5141 11.1908 8.5 11.219 8.5C11.219 8.5141 11.2331 8.5141 11.2331 8.52819Z" fill="#91B5E6"/>
<defs>
<linearGradient id="paint0_linear_862_4832" x1="2.01512" y1="10.7532" x2="13.1243" y2="4.51272" gradientUnits="userSpaceOnUse">
<stop stop-color="#EBB34D"/>
<stop offset="0.033108" stop-color="#ECB64D"/>
<stop offset="0.1781" stop-color="#EEC04F"/>
<stop offset="0.5514" stop-color="#F1CC51"/>
<stop offset="1" stop-color="#F3D652"/>
</linearGradient>
</defs>
</svg>

<svg xmlns="http://www.w3.org/2000/svg" width="15" height="15" fill="none">
  <path fill="url(#a)" d="M7.5 14c3.493 0 6.324-2.91 6.324-6.5S10.993 1 7.5 1 1.176 3.91 1.176 7.5 4.007 14 7.5 14Z"/>
  <path stroke="#303030" stroke-linecap="round" stroke-linejoin="round" stroke-miterlimit="10" d="M9 7.5s.169.5 1 .5c.789 0 1-.5 1-.5M4 7.5s.169.5 1 .5c.789 0 1-.5 1-.5"/>
  <path stroke="#5B0600" stroke-linecap="round" stroke-linejoin="round" stroke-miterlimit="10" d="M6.5 11.5s.838-1.125 2 0"/>
  <path fill="#91B5E6" d="m11.233 8.528.62 1.706a.69.69 0 0 1-.422.888.69.69 0 0 1-.889-.423.66.66 0 0 1 0-.465l.62-1.706c.015-.014.029-.028.057-.028 0 .014.014.014.014.028Z"/>
  <defs>
    <linearGradient id="a" x1="2.015" x2="13.124" y1="10.753" y2="4.513" gradientUnits="userSpaceOnUse">
      <stop stop-color="#EBB34D"/>
      <stop offset=".033" stop-color="#ECB64D"/>
      <stop offset=".178" stop-color="#EEC04F"/>
      <stop offset=".551" stop-color="#F1CC51"/>
      <stop offset="1" stop-color="#F3D652"/>
    </linearGradient>
  </defs>
</svg>
